X:1     %Music
T:Christmas Song
T:The Trees are all bare
S:Bob Copper
B:Bob Copper, A Song for Every Season, Coppersongs, 1997
F:http://www.folkinfo.org/songs
M:4/4 
L:1/8 
K:G
D2 |G4 D2 G2 |G4 (GA) B2 |(A2 G2) (GA) B2 |(AB c2)
w:The trees are all bare, not_ a leaf_ to_ be seen__ 
B2 c2 |d4 (AB) c2 |(B2 d2) A3 A |G6
w:And the mead-ows_ their beau--ty have lost.     
(GA) |B4 (AB) c2 |B4 (AB) c2 |d2 d2 (ed) ^c2 | d4 
w:Now_ win-ter_ has come and_ 'tis cold for man_ and beast
   D2 D2 |[M:6/4][L:1/8]E2 F2 (G3 F E4) |
w:And the streams they are__                  
M:4/4
L:1/8 
c2 B2 c2 d2 |e4 Hd2 c2 |B4 A3 G |G6 |]
w:And the streams they are all fast bound down with frost.